src/lib/packages/icons/src/assets/filled/angles-down.svg

<svg width="24" height="24" viewBox="0 0 24 24" fill="none" xmlns="http://www.w3.org/2000/svg">
<path d="M19.7071 11.293C20.0981 11.684 20.0981 12.3161 19.7071 12.7071L12.7071 19.7071C12.5121 19.9021 12.256 20 12 20C11.744 20 11.488 19.9021 11.293 19.7071L4.29301 12.7071C3.90201 12.3161 3.90201 11.684 4.29301 11.293C4.68401 10.902 5.31607 10.902 5.70707 11.293L12 17.586L18.293 11.293C18.684 10.902 19.3161 10.902 19.7071 11.293ZM11.293 12.7071C11.488 12.9021 11.744 13 12 13C12.256 13 12.5121 12.9021 12.7071 12.7071L19.7071 5.70707C20.0981 5.31607 20.0981 4.68401 19.7071 4.29301C19.3161 3.90201 18.684 3.90201 18.293 4.29301L12 10.586L5.70707 4.29301C5.31607 3.90201 4.68401 3.90201 4.29301 4.29301C3.90201 4.68401 3.90201 5.31607 4.29301 5.70707L11.293 12.7071Z" fill="currentColor"/>
</svg>

<svg xmlns="http://www.w3.org/2000/svg" width="24" height="24" fill="none"><path fill="currentColor" d="M19.707 11.293a.999.999 0 0 1 0 1.414l-7 7a.997.997 0 0 1-1.414 0l-7-7a.999.999 0 1 1 1.414-1.414L12 17.586l6.293-6.293a.999.999 0 0 1 1.414 0Zm-8.414 1.414a.997.997 0 0 0 1.414 0l7-7a.999.999 0 1 0-1.414-1.414L12 10.586 5.707 4.293a.999.999 0 1 0-1.414 1.414l7 7Z"/></svg>
